icon-themes/sifr_svg/cmd/lc_insertbookmark.svg

<svg viewBox="0 0 24 24" xmlns="http://www.w3.org/2000/svg"><path d="m4 2v2h-2v5h2v6h-2v5h2v2h18v-20zm2 2h6v9l3-3 3 3v-9h2v16h-14z" fill="#555753"/></svg>

<svg xmlns="http://www.w3.org/2000/svg" viewBox="0 0 24 24">
  <path
     style="fill:#555753"
     d="M 4,2 V 4 H 2 v 5 h 2 v 6 H 2 v 5 h 2 v 2 H 22 V 2 Z m 2,2 h 6 v 9 l 3,-3 3,3 V 4 h 2 V 20 H 6 Z"
     />
</svg>
